X: 1
T: J. B. Milne
M: 2/4
L: 1/8
R: polka
K: Gmaj
B>c|:d/e/d/c/ BG|DG B2|B/d/c/B/ AG|c2 A>B|
c/d/c/B/ AF|DF A2|B/c/B/A/ GA|B2 B>c|
d/e/d/c/ BG|DG B2|B/d/c/B/ AG|e2 e>f|
g/e/c/G/ E/G/c/e/|e/d/B/G/ D/G/B/d/|d^c =cf/a/|g2 B>c:|
|:dB eB|dB eB|d^c/d/ e/d/=c/B/|c2 A>B|cA dA|
cA dA|cB/c/ d/c/B/A/|B2 B>c|dB eB|
dB eB|gf/g/ a/g/f/g/|e2 e>f|g/a/g/f/ e/g/f/e/|
e/d/B/G/ D/G/B/d/|d^c =cf/a/|1g2 B>c:|2g2 z2||
